X: 1
P: North of the Grampians
C: Taobh Tuath nan Garbh Bheann
C: Capt. Simon Fraser
R: Reel
B: Hunter Collection
C: arr. Terry Traub 10-16-02
M: 4/4
K: C
L: 1/8
F |: "C"E>FG>A G<EE<c| "C"E/F/G G<c "G"c<e d2|"C"E>FG>A G<EE>G|"G"F>D B,<G, B,/C/D F2 :|
"C"e>c e/f/g e<cc>f|"C"e<cc>f e/f/g "F"f/g/a|"C"e>c e/f/g e<cc>e|"G"f>d B<G B/c/d f2|
"C"e>c e/f/g e<cc>f|"C"e<cc>f e/f/g "F"f/g/a|"C"(3gfe (3dcB (3cBA (3GFE|"G"F>D B,<G, B,/C/D F2 |]
